!!!!SEGMENT: pl-kk--kk-i-69--002_anonim--protexisti-pro-festo-kyrie.krn
!!!cenid: 17xx:2283
!!!COM: Anonim
!!!COM-rismid: pe30004985
!!!CDT:
!!!CNT:
!!!OPR: Protexisti pro festo
!!!OTL: Kyrie
!!!OMV: 002
!!!PDT:
!!!AGN: Sacred; Mass
!!!SMS-siglum: PL-Kk
!!!SMS-shelfmark: Kk.I.69
!!!SMS-shelfwork: 001-002 M
!!!SMS-variant:
!!!SMS-altvar:
!!!NIFC-rismid: 1001154789
!!!URL-scan: http://repozytorium.nifc.pl/skany/pl-kk-nut--i-69
!!!ONB-nifc: UWAGA: części Mszy: 1. Protexisti me, 2. Kyrie, 3. Et in terra, 4. Alleluia,
**kern	**text	**kern	**text	**kern	**text
*part3	*part3	*part2	*part2	*part1	*part1
*staff3	*staff3	*staff2	*staff2	*staff1	*staff1
*Iempty	*	*Itenor	*	*Itenor	*
*I"Baſso	*	*I"Tenore Secundo	*	*I"Tenore Primo	*
*I'B	*	*I'T 2	*	*I'T 1	*
*clefF4	*	*clefC4	*	*clefC4	*
*k[]	*	*k[]	*	*k[]	*
*C:	*	*C:	*	*C:	*
*M2/2	*	*M2/2	*	*M2/2	*
*met(c|)	*	*met(c|)	*	*met(c|)	*
*2\right	*	*2\right	*	*2\right	*
=1	=1	=1	=1	=1	=1
!LO:TX:a:t=adagio	!	!LO:TX:a:t=ada&colon;	!	!LO:TX:b:t=ada&colon;	!
4C\	Ky-	2.e\	Ky-	2.g\	Ky-
4E\	.	.	.	.	.
4G\	.	.	.	.	.
4E\	-ri-	4e\	-ri-	4g\	-ri-
=2	=2	=2	=2	=2	=2
1C	-e	1e	-e	1g	-e
=3	=3	=3	=3	=3	=3
4C\	Ky-	2e\	Ky-	1g	Ky-
4E\	.	.	.	.	.
4G\	.	2c\	.	.	.
4c\	.	.	.	.	.
=4	=4	=4	=4	=4	=4
4B\	.	2d\	.	2f\	.
4G\	.	.	.	.	.
2c\	ri-	2c\	-ri-	2e\	-ri-
=5	=5	=5	=5	=5	=5
1G;	-e	1B;	-e	1d;	-e
=6||	=6||	=6||	=6||	=6||	=6||
!	!	!LO:TX:a:t=allo	!	!LO:TX:a:t=allo	!
2c\	Ky-	2e\	Ky-	2g\	Ky-
2G\	-ri-	2d\	-ri-	2f\	-ri-
=7	=7	=7	=7	=7	=7
2E\	-e	2c\	-e	2e\	-e
2C/	e-	2e\	e-	2g\	e-
=8	=8	=8	=8	=8	=8
!LO:LB:g=original	!	!	!	!	!
1G	-lei-	4d\	lei-	4f\	-lei-
.	.	4c\	.	4e\	.
.	.	4d\	.	4f\	.
.	.	4B\	.	4d\	.
=9	=9	=9	=9	=9	=9
!	!	!LO:LB:g=original	!	!LO:LB:g=original	!
2C/	-son	2G/	-son	2e\	-son
4C/	Ky-	4e\	Ky-	4g\	Ky-
4E/	-ri-	4c\	-ri-	4e\	-ri-
=10	=10	=10	=10	=10	=10
1G	-e	2B\	-e	2d\	-e
.	.	4c\	e-	4e\	e-
.	.	4d\	.	4f\	.
=11	=11	=11	=11	=11	=11
2c\	e-	2c\	-lei-	2e\	-lei-
4G\	.	4d\	.	4f\	.
4E\	.	4e\	.	4g\	.
=12	=12	=12	=12	=12	=12
2F\	-lei-	2d\	.	2f\	.
2F#X\	.	2c\	.	2e\	.
=13	=13	=13	=13	=13	=13
2G\	-son	2B\	-son	2d\	-son
4G\	Ky-	4d\	Ky-	4f\	Ky-
4G\	-ri-	4B\	-ri-	4d\	-ri-
=14	=14	=14	=14	=14	=14
4c\	-e	4c\	-e	4e\	-e
4G\	.	4B\	.	4d\	.
4E\	e-	4c\	e-	4e\	e-
4D\	.	4d\	.	4f\	.
=15	=15	=15	=15	=15	=15
!LO:LB:g=original	!	!	!	!	!
4C/	-lei-	4e\	lei-	4g\	-lei-
4BB/	.	4d\	.	4f\	.
4C/	.	4e\	.	4g\	.
4D/	.	4f\	.	4a\	.
=16	=16	=16	=16	=16	=16
!	!	!	!	!LO:LB:g=original	!
4C/	.	4e\	.	4g\	.
4D/	.	4d\	.	4f\	.
4E/	.	4c\	.	4e\	.
4F/	.	4B\	.	4d\	.
=17	=17	=17	=17	=17	=17
4G\	.	1G	.	4e\	.
4F\	.	.	.	4d\	.
4E\	.	.	.	4c\	.
4F\	.	.	.	4d\	.
=18	=18	=18	=18	=18	=18
2G\	.	2c\	.	2e\	.
2GG/	.	2B\	.	2d\	.
=19	=19	=19	=19	=19	=19
1C	-son	1c	-son	1e	-son.
=20||	=20||	=20||	=20||	=20||	=20||
*M3/2	*	*M3/2	*	*M3/2	*
!LO:LB:g=original	!	!LO:LB:g=original	!	!LO:LB:g=original	!
2C/	Chri-	2G/	Chri-	2c\	Chri-
2E/	-ste	2c\	-ste	2G\	-ste
2C/	e-	2G/	e-	2e\	e-
=21	=21	=21	=21	=21	=21
2G\	-lei-	2c\	-lei-	2e\	-lei-
2F\	.	2B\	.	2d\	.
2E\	-son	2G/	-son	2c\	-son
=22	=22	=22	=22	=22	=22
2C/	Chri-	2c\	Chri-	2e\	chri-
4E\	-ste	2c\	-ste	2e\	-ste
4G\	.	.	.	.	.
2c\	e-	2e\	e-	2g\	e-
=23	=23	=23	=23	=23	=23
2c\	-lei-	2e\	-lei-	2g\	-lei-
2G\	.	2d\	.	2f\	.
2C/	-son	2c\	-son	2e\	-son
=24	=24	=24	=24	=24	=24
2C/	Chri-	2e\	Chri-	2g\	Chri-
2F\	-ste	4f\	-ste	4a\	-ste
.	.	4e\	.	4g\	.
(4F\	e-	4d\	e-	4f\	e-
4F#X\)	.	4c\	.	4e\	.
=25	=25	=25	=25	=25	=25
!	!	!	!	!LO:TX:a:t=e	!
!LO:LB:g=original	!	!LO:LB:g=original	!	!LO:LB:g=original	!
2G\	-lei-	2c\	-lei-	2e\	-lei-
!	!	!	!	!LO:TX:a:t=d	!
2GG/	-son	2B\	-son	2d\	-son
4r	.	4r	.	4r	.
4G\	Chri-	4d\	Chri-	4f\	Chri-
=26	=26	=26	=26	=26	=26
2B\	.	2d\	.	2f\	.
2c\	-ste	2c\	-ste	2e\	-ste
2C/	e-	2e\	e-	2g\	e-
=27	=27	=27	=27	=27	=27
2C/	-lei-	2e\	-lei-	2g\	-lei-
2D/	.	2d\	.	2f\	.
2E\	.	2c\	.	2e\	.
=28	=28	=28	=28	=28	=28
1.G	.	2B\	.	2d\	.
.	.	2c\	.	2e\	.
.	.	2d\	.	2f\	.
=29	=29	=29	=29	=29	=29
2C/	.	2c\	.	2e\	.
!	!	!LO:TX:t=P:problem:wysokość poprawiana	!	!	!
2D/	.	2B\	.	2f\	.
!	!	!LO:TX:t=P:problem:wysokość poprawiana	!	!	!
2E\	.	2c\	.	2g\	.
=30	=30	=30	=30	=30	=30
!	!	!	!	!LO:LB:g=original	!
2F\	.	4f\	.	4a\	.
.	.	4d\	.	4f\	.
2G\	.	2c\	.	2e\	.
2GG/	.	2B\	.	2d\	.
=31	=31	=31	=31	=31	=31
!LO:LB:g=original	!	!LO:LB:g=original	!	!	!
2C/	-son	2c\	-son	2e\	-son
2r	.	2r	.	2r	.
2C/	e-	2c\	e-	2e\	e-
=32	=32	=32	=32	=32	=32
2D/	-lei-	2B\	-lei-	1.g	-lei-
2E/	.	2c\	.	.	.
2F/	.	2d\	.	.	.
=33	=33	=33	=33	=33	=33
2E\	.	2c\	.	2g\	.
2D\	.	2d\	.	2f\	.
2C\	.	2c\	.	2e\	.
=34	=34	=34	=34	=34	=34
2F\	.	4f\	.	4a\	.
.	.	4d\	.	4f\	.
2G\	.	2c\	.	2e\	.
2GG/	.	2B\	.	2d\	.
=35	=35	=35	=35	=35	=35
1.C	-son	1.G	-son	1.e	-son.
=36||	=36||	=36||	=36||	=36||	=36||
*M2/2	*	*M2/2	*	*M2/2	*
*met(c|)	*	*met(c|)	*	*met(c|)	*
!LO:LB:g=original	!	!LO:LB:g=original	!	!LO:PB:g=original	!
2C/	Ky-	2e\	Ky-	2g\	Ky-
2E\	-ri-	2c\	-ri-	2e\	-ri-
=37	=37	=37	=37	=37	=37
2.G\	-e	2.B\	-e	2.d\	-e
4c\	e-	4c\	e-	4e\	e-
=38	=38	=38	=38	=38	=38
2B\	-lei-	4d\	-lei-	4f\	-lei-
.	.	4c\	.	4e\	.
2G\	.	4B\	.	4d\	.
.	.	4d\	.	4f\	.
=39	=39	=39	=39	=39	=39
2c\	-son	2c\	-son	2e\	-son
4C/	Ky-	4e\	Ky-	4g\	Ky-
4E/	-ri-	4c\	ri-	4e\	-ri-
=40	=40	=40	=40	=40	=40
2G\	-e	2B\	-e	2d\	-e
2G\	e-	4c\	e-	4e\	e-
.	.	4B\	.	4d\	.
=41	=41	=41	=41	=41	=41
2F#X\	-lei-	2A\	-lei-	4c\	-lei-
.	.	.	.	4f#X\	.
2D\	.	4c\	.	4a\	.
.	.	4A\	.	4c\	.
=42	=42	=42	=42	=42	=42
2G\	-son	2G/	-son	2B\	-son
4G\	Ky-	4B\	Ky-	4d\	Ky-
4G\	-ri-	4c\	-ri-	4e\	-ri-
=43	=43	=43	=43	=43	=43
!LO:PB:g=original	!	!LO:PB:g=original	!	!LO:LB:g=original	!
2G\	-e	2d\	-e	2fn\	-e
2G\	e-	4B\	e-	4d\	e-
.	.	4d\	.	4f\	.
=44	=44	=44	=44	=44	=44
2C/	-lei-	4c\	-lei-	4e\	-lei-
.	.	4e\	.	4g\	.
4F\	.	4d\	.	4f\	.
4F#X\	.	4c\	.	4e\	.
=45	=45	=45	=45	=45	=45
2G\	-son	2B\	-son	2d\	-son
2G\	e-	4d\	e-	4f\	e-
.	.	4B\	.	4d\	.
=46	=46	=46	=46	=46	=46
4C/	-lei-	2.G/	-lei-	4e\	-lei-
4D/	.	.	.	4f\	.
4E/	.	.	.	4g\	.
4F/	.	4c\	.	8a\L	.
.	.	.	.	8f\J	.
=47	=47	=47	=47	=47	=47
2G\	.	2c\	.	2e\	.
2GG/	.	2B\	.	2d\	.
=48	=48	=48	=48	=48	=48
2C/	-son	2c\	-son	2e\	-son
4G\	Ky-	4B\	Ky-	4d\	Ky-
4G\	-ri-	4c\	-ri-	4e\	-ri-
=49	=49	=49	=49	=49	=49
4G\	-e	2d\	-e	2f\	-e
4A\	.	.	.	.	.
4B\	e-	4B\	e-	4d\	e-
4G\	.	4d\	.	4f\	.
=50	=50	=50	=50	=50	=50
!LO:LB:g=original	!	!LO:LB:g=original	!	!LO:LB:g=original	!
4C\	-lei-	1G	-lei-	4e\	-lei-
4D\	.	.	.	4f\	.
4E\	.	.	.	4g\	.
4C\	.	.	.	4e\	.
=51	=51	=51	=51	=51	=51
2G\	-son	2B\	-son	2d\	-son
4G\	Ky-	4B\	Ky-	4d\	Ky-
4F\	-ri-	4d\	-ri-	4f\	-ri-
=52	=52	=52	=52	=52	=52
2E\	-e	2c\	-e	2e\	-e
2BB/	e-	2d\	e-	2f\	e-
=53	=53	=53	=53	=53	=53
2C/	-lei-	2e\	lei-	2g\	-lei-
2F\	.	4f\	.	4a\	.
.	.	4d\	.	4f\	.
=54	=54	=54	=54	=54	=54
2G\	.	2c\	.	2e\	.
2GG/	.	2B\	.	2d\	.
=55	=55	=55	=55	=55	=55
2C/	-son	2G/	-son	2e\	-son
2C/	e-	2G/	e-	2e\	e-
=56	=56	=56	=56	=56	=56
2F\	-lei-	2c\	-lei-	1f	-lei-
2G\	.	2d\	.	.	.
=57	=57	=57	=57	=57	=57
1C	-son	1G	-son	1e	-son
==	==	==	==	==	==
*-	*-	*-	*-	*-	*-
!!!system-decoration: [(s1,s2,s3)]
!!!AIN: 1 empty 2 tenor
!!!ENC: Kamil Watkowski
!!!END: 2021-08-06
